build/svg/cmd/lc_comparedocuments.svg

<?xml version="1.0" encoding="UTF-8" standalone="no"?>
<svg
   xmlns:dc="http://purl.org/dc/elements/1.1/"
   xmlns:cc="http://creativecommons.org/ns#"
   xmlns:rdf="http://www.w3.org/1999/02/22-rdf-syntax-ns#"
   xmlns:svg="http://www.w3.org/2000/svg"
   xmlns="http://www.w3.org/2000/svg"
   xmlns:sodipodi="http://sodipodi.sourceforge.net/DTD/sodipodi-0.dtd"
   xmlns:inkscape="http://www.inkscape.org/namespaces/inkscape"
   viewBox="0 0 24 24"
   version="1.1"
   id="svg4"
   sodipodi:docname="lc_comparedocuments.svg"
   inkscape:export-filename="/home/jupiter007/Libreoffice yaru theme fullcolor/build/cmd/lc_comparedocuments.png"
   inkscape:export-xdpi="96"
   inkscape:export-ydpi="96"
   inkscape:version="0.92.5 (2060ec1f9f, 2020-04-08)">
  <metadata
     id="metadata10">
    <rdf:RDF>
      <cc:Work
         rdf:about="">
        <dc:format>image/svg+xml</dc:format>
        <dc:type
           rdf:resource="http://purl.org/dc/dcmitype/StillImage" />
      </cc:Work>
    </rdf:RDF>
  </metadata>
  <defs
     id="defs8" />
  <sodipodi:namedview
     pagecolor="#ffffff"
     bordercolor="#666666"
     borderopacity="1"
     objecttolerance="10"
     gridtolerance="10"
     guidetolerance="10"
     inkscape:pageopacity="0"
     inkscape:pageshadow="2"
     inkscape:window-width="1920"
     inkscape:window-height="1011"
     id="namedview6"
     showgrid="true"
     inkscape:snap-global="true"
     inkscape:zoom="19.666667"
     inkscape:cx="6.3330948"
     inkscape:cy="11.05481"
     inkscape:window-x="0"
     inkscape:window-y="32"
     inkscape:window-maximized="1"
     inkscape:current-layer="svg4">
    <inkscape:grid
       type="xygrid"
       id="grid817" />
  </sodipodi:namedview>
  <path
     style="font-style:normal;font-variant:normal;font-weight:normal;font-stretch:normal;font-size:15px;line-height:125%;font-family:Ubuntu;-inkscape-font-specification:Ubuntu;text-align:center;letter-spacing:0px;word-spacing:0px;writing-mode:lr-tb;text-anchor:middle;display:inline;opacity:0.6;fill:#000000;fill-opacity:1;stroke:none;stroke-width:0.99980211"
     d="M 4.994141,0.999421 C 3.7359412,1.013921 2.81525,0.968821 2.0625,1.384187 1.68613,1.591847 1.389269,1.943573 1.224609,2.382233 1.059939,2.820903 1,3.341821 1,3.999421 v 1.488281 10.512303 c 0,0.657609 0.0599,1.178577 0.224609,1.617189 0.16468,0.43861 0.461531,0.788523 0.837891,0.996092 0.75272,0.415131 1.6735412,0.37165 2.931641,0.386719 h 0.002 8.005859 0.0039 c 1.25819,-0.0145 2.178891,0.0306 2.931641,-0.384766 0.37637,-0.20766 0.673221,-0.559386 0.837891,-0.998045 0.164539,-0.438671 0.224618,-0.95958 0.224618,-1.617189 V 5.466218 3.999421 c 0,-0.6576 -0.0599,-1.178577 -0.224609,-1.617188 C 16.610761,1.943634 16.31391,1.5937 15.93755,1.38614 15.18478,0.97101 14.263949,1.014501 13.005859,0.999421 h -0.002 H 4.998 Z"
     id="path839"
     inkscape:connector-curvature="0"
     sodipodi:nodetypes="cccscsccccccccscscccccc" />
  <path
     sodipodi:nodetypes="cccccccscccccccc"
     style="opacity:1;vector-effect:none;fill:#ffffff;fill-opacity:1;stroke:none;stroke-width:1;stroke-linecap:round;stroke-linejoin:bevel;stroke-miterlimit:4;stroke-dasharray:none;stroke-dashoffset:0;stroke-opacity:1"
     d="M 8,2.000005 C 6.443419,2.010805 4.89001,1.988255 3.340059,2.038775 2.87883,2.081445 2.323871,2.245194 2.184719,2.748742 1.965725,3.384088 2.076305,4.082529 2.038923,4.730666 c -0.0078,2.297084 -0.02297,9.59643 0.02152,11.885781 0.0391,0.461929 0.202551,1.012665 0.698756,1.163665 0.632456,0.225083 1.284144,0.12274 1.935974,0.154299 1.424235,0.0068 2.850563,0.01102 4.27642,0.01131 1.704531,3.49e-4 3.408388,-0.005 5.10719,-0.01851 0.511911,-0.01201 1.183699,0.01993 1.584745,-0.405192 0.421097,-0.539783 0.287073,-1.268021 0.322745,-1.903787 0.01187,-2.444322 0.02769,-9.911096 -0.0219,-12.356795 C 15.915093,2.859397 15.794381,2.398485 15.389234,2.216962 14.721065,1.922865 13.963029,2.048943 13.263313,2.01139 11.508906,1.99959 9.754439,1.9989 8,2 Z"
     id="path841"
     inkscape:connector-curvature="0" />
  <path
     sodipodi:nodetypes="cccscsccccccccscscccccc"
     inkscape:connector-curvature="0"
     id="path4237-1"
     d="M 10.994141,4.999416 C 9.7359412,5.013916 8.81525,4.968816 8.0625,5.384182 7.68613,5.591842 7.389269,5.943568 7.224609,6.382228 7.059939,6.820898 7,7.341816 7,7.999416 V 9.487697 20 c 0,0.657609 0.0599,1.178577 0.224609,1.617189 0.16468,0.43861 0.461531,0.788523 0.837891,0.996092 0.75272,0.415131 1.6735412,0.37165 2.931641,0.386719 h 0.002 8.005859 0.0039 c 1.25819,-0.0145 2.178891,0.0306 2.931641,-0.384766 0.37637,-0.20766 0.673221,-0.559386 0.837891,-0.998045 C 22.939971,21.178518 23.00005,20.657609 23.00005,20 V 9.466213 7.999416 c 0,-0.6576 -0.0599,-1.178577 -0.224609,-1.617188 C 22.610761,5.943629 22.31391,5.593695 21.93755,5.386135 21.18478,4.971005 20.263949,5.014496 19.005859,4.999416 h -0.002 H 10.998 Z"
     style="font-style:normal;font-variant:normal;font-weight:normal;font-stretch:normal;font-size:15px;line-height:125%;font-family:Ubuntu;-inkscape-font-specification:Ubuntu;text-align:center;letter-spacing:0px;word-spacing:0px;writing-mode:lr-tb;text-anchor:middle;display:inline;opacity:0.6;fill:#000000;fill-opacity:1;stroke:none;stroke-width:0.99980211" />
  <path
     inkscape:connector-curvature="0"
     id="path1993"
     d="M 14,6 C 12.443419,6.0108 10.89001,5.98825 9.340059,6.03877 8.87883,6.08144 8.323871,6.245189 8.184719,6.748737 7.965725,7.384083 8.076305,8.082524 8.038923,8.730661 c -0.0078,2.297084 -0.02297,9.59643 0.02152,11.885781 0.0391,0.461929 0.202551,1.012665 0.698756,1.163665 0.632456,0.225083 1.284144,0.12274 1.935974,0.154299 1.424235,0.0068 2.850563,0.01102 4.27642,0.01131 1.704531,3.49e-4 3.408388,-0.005 5.10719,-0.01851 0.511911,-0.01201 1.183699,0.01993 1.584745,-0.405192 0.421097,-0.539783 0.287073,-1.268021 0.322745,-1.903787 0.01187,-2.444322 0.02769,-9.911096 -0.0219,-12.356795 C 21.915093,6.859392 21.794381,6.39848 21.389234,6.216957 20.721065,5.92286 19.963029,6.048938 19.263313,6.011385 17.508906,5.999585 15.754439,5.998895 14,5.999995 Z"
     style="opacity:1;vector-effect:none;fill:#ffffff;fill-opacity:1;stroke:none;stroke-width:1;stroke-linecap:round;stroke-linejoin:bevel;stroke-miterlimit:4;stroke-dasharray:none;stroke-dashoffset:0;stroke-opacity:1"
     sodipodi:nodetypes="cccccccscccccccc" />
  <path
     sodipodi:nodetypes="cccccccc"
     style="opacity:0.6;fill:#000000;fill-opacity:1;stroke:#000000;stroke-width:2;stroke-linecap:butt;stroke-linejoin:round;stroke-miterlimit:4;stroke-dasharray:none;stroke-opacity:1"
     d="M 13,8.5 9,12 V 10 H 5 V 7 H 9 V 5 Z"
     id="path839-3"
     inkscape:connector-curvature="0" />
  <path
     sodipodi:nodetypes="cccccccc"
     id="path841-6"
     d="M 13,8.5 9,12 V 10 H 5 V 7 H 9 V 5 Z"
     style="fill:#e97cc8;fill-opacity:1;stroke:none;stroke-width:1px;stroke-linecap:butt;stroke-linejoin:miter;stroke-opacity:1"
     inkscape:connector-curvature="0" />
  <path
     inkscape:connector-curvature="0"
     id="path851"
     d="m 11,15.5 4,3.5 v -2 h 4 v -3 h -4 v -2 z"
     style="opacity:0.6;fill:#000000;fill-opacity:1;stroke:#000000;stroke-width:2;stroke-linecap:butt;stroke-linejoin:round;stroke-miterlimit:4;stroke-dasharray:none;stroke-opacity:1"
     sodipodi:nodetypes="cccccccc" />
  <path
     inkscape:connector-curvature="0"
     style="fill:#aee3f8;fill-opacity:1;stroke:none;stroke-width:1px;stroke-linecap:butt;stroke-linejoin:miter;stroke-opacity:1"
     d="m 11,15.5 4,3.5 v -2 h 4 v -3 h -4 v -2 z"
     id="path853"
     sodipodi:nodetypes="cccccccc" />
</svg>

<svg xmlns="http://www.w3.org/2000/svg" viewBox="0 0 24 24"><path style="line-height:125%;-inkscape-font-specification:Ubuntu;text-align:center" d="M4.994 1c-1.258.014-2.179-.031-2.931.384a1.88 1.88 0 00-.838.998C1.06 2.821 1 3.342 1 4V16c0 .658.06 1.179.225 1.617.164.439.461.789.838.996.752.415 1.673.372 2.931.387h8.012c1.258-.014 2.179.03 2.932-.385a1.88 1.88 0 00.837-.998c.165-.438.225-.96.225-1.617V3.999c0-.657-.06-1.178-.225-1.617a1.875 1.875 0 00-.837-.996c-.753-.415-1.674-.371-2.932-.387H4.998z" font-weight="400" font-size="15" font-family="Ubuntu" letter-spacing="0" word-spacing="0" text-anchor="middle" opacity=".6"/><path d="M8 2c-1.557.01-3.11-.012-4.66.039-.461.042-1.016.206-1.155.71-.22.635-.109 1.334-.146 1.982-.008 2.297-.023 9.596.021 11.885.04.462.203 1.013.7 1.164.632.225 1.283.123 1.935.154 1.424.007 2.85.011 4.277.012 1.704 0 3.408-.005 5.107-.019.512-.012 1.183.02 1.585-.405.42-.54.287-1.268.322-1.904.012-2.444.028-9.91-.022-12.357-.049-.402-.17-.863-.575-1.044-.668-.294-1.426-.168-2.126-.206A715.83 715.83 0 008 2z" fill="#fff"/><path d="M10.994 5c-1.258.014-2.179-.031-2.931.384a1.88 1.88 0 00-.838.998C7.06 6.821 7 7.342 7 8V20c0 .658.06 1.179.225 1.617.164.439.461.789.838.996.752.415 1.673.372 2.931.387h8.012c1.258-.015 2.179.03 2.932-.385a1.88 1.88 0 00.837-.998c.165-.438.225-.96.225-1.617V7.999c0-.657-.06-1.178-.225-1.617a1.875 1.875 0 00-.837-.996c-.753-.415-1.674-.372-2.932-.387H10.998z" style="line-height:125%;-inkscape-font-specification:Ubuntu;text-align:center" font-weight="400" font-size="15" font-family="Ubuntu" letter-spacing="0" word-spacing="0" text-anchor="middle" opacity=".6"/><path d="M14 6c-1.557.01-3.11-.012-4.66.039-.461.042-1.016.206-1.155.71-.22.635-.109 1.334-.146 1.982-.008 2.297-.023 9.596.021 11.885.04.462.203 1.013.7 1.164.632.225 1.283.123 1.935.154 1.424.007 2.85.011 4.277.012 1.704 0 3.408-.005 5.107-.019.512-.012 1.183.02 1.585-.405.42-.54.287-1.268.322-1.904.012-2.444.028-9.91-.022-12.357-.049-.402-.17-.863-.575-1.044-.668-.294-1.426-.168-2.126-.206A715.83 715.83 0 0014 6z" fill="#fff"/><path d="M13 8.5L9 12v-2H5V7h4V5z" opacity=".6" stroke="#000" stroke-width="2" stroke-linejoin="round"/><path d="M13 8.5L9 12v-2H5V7h4V5z" fill="#e97cc8"/><path d="M11 15.5l4 3.5v-2h4v-3h-4v-2z" opacity=".6" stroke="#000" stroke-width="2" stroke-linejoin="round"/><path d="M11 15.5l4 3.5v-2h4v-3h-4v-2z" fill="#aee3f8"/></svg>
